share/icons/Flat-Remix-Blue-Dark/apps/scalable/emacs.svg

<?xml version="1.0" encoding="UTF-8" standalone="no"?>
<svg
   xmlns:dc="http://purl.org/dc/elements/1.1/"
   xmlns:cc="http://creativecommons.org/ns#"
   xmlns:rdf="http://www.w3.org/1999/02/22-rdf-syntax-ns#"
   xmlns:svg="http://www.w3.org/2000/svg"
   xmlns="http://www.w3.org/2000/svg"
   xmlns:xlink="http://www.w3.org/1999/xlink"
   xmlns:sodipodi="http://sodipodi.sourceforge.net/DTD/sodipodi-0.dtd"
   xmlns:inkscape="http://www.inkscape.org/namespaces/inkscape"
   width="512"
   height="512"
   version="1.1"
   viewBox="0 0 384 384"
   id="svg52"
   sodipodi:docname="deepin-emacs.svg"
   inkscape:version="0.92.4 5da689c313, 2019-01-14">
  <metadata
     id="metadata56">
    <rdf:RDF>
      <cc:Work
         rdf:about="">
        <dc:format>image/svg+xml</dc:format>
        <dc:type
           rdf:resource="http://purl.org/dc/dcmitype/StillImage" />
        <dc:title></dc:title>
      </cc:Work>
    </rdf:RDF>
  </metadata>
  <sodipodi:namedview
     pagecolor="#ffffff"
     bordercolor="#666666"
     borderopacity="1"
     objecttolerance="10"
     gridtolerance="10"
     guidetolerance="10"
     inkscape:pageopacity="0"
     inkscape:pageshadow="2"
     inkscape:window-width="1720"
     inkscape:window-height="1382"
     id="namedview54"
     showgrid="false"
     inkscape:zoom="1.84375"
     inkscape:cx="196.6834"
     inkscape:cy="196.57131"
     inkscape:window-x="1080"
     inkscape:window-y="315"
     inkscape:window-maximized="0"
     inkscape:current-layer="svg52" />
  <defs
     id="defs40">
    <linearGradient
       id="linearGradient937">
      <stop
         style="stop-color:rgb(54.901%,25.882%,67.058%)"
         offset="0"
         id="stop2" />
      <stop
         style="stop-color:rgb(74.901%,18.039%,36.862%)"
         offset="1"
         id="stop4" />
    </linearGradient>
    <linearGradient
       id="linearGradient927">
      <stop
         offset="0"
         style="stop-color:rgb(54.901%,25.882%,67.058%)"
         id="stop7" />
      <stop
         offset="1"
         style="stop-color:rgb(0%,0%,0%)"
         id="stop9" />
    </linearGradient>
    <filter
       id="alpha"
       width="100%"
       height="100%"
       x="0%"
       y="0%"
       filterUnits="objectBoundingBox">
      <feColorMatrix
         in="SourceGraphic"
         type="matrix"
         values="0 0 0 0 1 0 0 0 0 1 0 0 0 0 1 0 0 0 1 0"
         id="feColorMatrix12" />
    </filter>
    <mask
       id="mask0">
      <g
         filter="url(#alpha)"
         id="g17">
        <rect
           style="fill:rgb(0%,0%,0%);fill-opacity:0.2"
           width="384"
           height="384"
           x="0"
           y="0"
           id="rect15" />
      </g>
    </mask>
    <clipPath
       id="clip1">
      <rect
         width="384"
         height="384"
         x="0"
         y="0"
         id="rect20" />
    </clipPath>
    <g
       id="surface5"
       clip-path="url(#clip1)">
      <path
         d="M 24.304688 192.003906 C 24.234375 194.007812 24 195.976562 24 198.003906 C 24 291.074219 98.925781 366 191.996094 366 C 285.066406 366 359.992188 291.074219 359.992188 198.003906 C 359.992188 195.980469 359.757812 194.011719 359.6875 192.003906 C 356.519531 282.253906 283.03125 354 191.992188 354 C 100.945312 354 27.464844 282.253906 24.296875 192.003906 Z M 24.304688 192.003906"
         style="fill:rgb(0%,0%,0%)"
         id="path23" />
    </g>
    <mask
       id="mask1">
      <g
         filter="url(#alpha)"
         id="g28">
        <rect
           style="fill:rgb(0%,0%,0%);fill-opacity:0.101961"
           width="384"
           height="384"
           x="0"
           y="0"
           id="rect26" />
      </g>
    </mask>
    <clipPath
       id="clip2">
      <rect
         width="384"
         height="384"
         x="0"
         y="0"
         id="rect31" />
    </clipPath>
    <g
       id="surface8"
       clip-path="url(#clip2)">
      <path
         d="M 192 24.011719 C 98.929688 24.011719 24 98.929688 24 192 C 24 192.679688 24.066406 193.34375 24.105469 194.015625 C 26.214844 102.808594 100.265625 30 192 30 C 283.734375 30 357.785156 102.808594 359.894531 194.015625 C 359.933594 193.34375 360 192.679688 360 192 C 360 98.929688 285.070312 24.011719 192 24.011719 Z M 192 24.011719"
         style="fill:rgb(100.000%,100.000%,100.000%)"
         id="path34" />
    </g>
    <linearGradient
       id="linearGradient931"
       x1="239.817"
       x2="-85.818"
       y1="193.455"
       y2="595.636"
       gradientUnits="userSpaceOnUse"
       xlink:href="#linearGradient937" />
    <linearGradient
       id="linearGradient956"
       x1="303.273"
       x2="66.909"
       y1="64.727"
       y2="325.091"
       gradientUnits="userSpaceOnUse"
       xlink:href="#linearGradient927" />
    <linearGradient
       id="linearGradient958"
       x1="303.273"
       x2="66.909"
       y1="64.727"
       y2="325.091"
       gradientUnits="userSpaceOnUse"
       xlink:href="#linearGradient927" />
    <linearGradient
       gradientTransform="matrix(1.3333333,0,0,1.3333333,1.6e-5,6e-6)"
       id="linearGradient931-7"
       x1="239.817"
       x2="-85.818001"
       y1="193.455"
       y2="595.63599"
       gradientUnits="userSpaceOnUse"
       xlink:href="#linearGradient937" />
    <linearGradient
       gradientTransform="translate(7.5e-6,-7.4999955)"
       id="linearGradient931-0"
       x1="239.817"
       x2="-85.818001"
       y1="193.455"
       y2="595.63599"
       gradientUnits="userSpaceOnUse"
       xlink:href="#linearGradient937" />
    <linearGradient
       gradientTransform="matrix(1.3333333,0,0,1.3333333,6e-6,6e-6)"
       id="linearGradient931-06"
       x1="239.817"
       x2="-85.818001"
       y1="193.455"
       y2="595.63599"
       gradientUnits="userSpaceOnUse"
       xlink:href="#linearGradient937" />
    <linearGradient
       gradientTransform="translate(4.5e-6,7.5000045)"
       id="linearGradient931-6"
       x1="239.817"
       x2="-85.818001"
       y1="193.455"
       y2="595.63599"
       gradientUnits="userSpaceOnUse"
       xlink:href="#linearGradient937" />
  </defs>
  <path
     style="fill:url(#linearGradient931)"
     d="M 360,192.00781 C 360,99.226562 284.78516,24.011719 192.00781,24.011719 99.226562,24.011719 24.011719,99.226562 24.011719,192.00781 24.011719,284.78516 99.226562,360 192.00781,360 284.78516,360 360,284.78516 360,192.00781 Z m 0,0"
     id="path44" />
  <path
     inkscape:connector-curvature="0"
     style="fill:#040404;stroke-width:0.99999994;fill-opacity:1;opacity:0.3"
     d="m 126.44141,295.49998 c 0,0 12.875,6.05859 30.01562,8.19531 6.94141,0.86328 33.34766,3.89063 53.59766,3.80861 0,0 24.66015,0.0234 38.27343,-1.90235 14.24219,-2.02344 22.3086,-4.60548 26.80079,-9.76173 0.11718,-1.22655 2.16796,-5.23047 -3.36719,-9.09375 -14.15625,-9.87499 -32.45313,-12.57811 -67.9961,-21.01953 -39.30468,-9.88281 -51.65234,-19.34374 -57.52343,-26.1914 -5.5625,-6.86329 1.64843,-21.11719 33.32031,-28.10938 16.03516,-3.90234 72.4375,-5.92578 72.4375,-5.92578 -17.13281,-13.60157 -45.98438,-36.64844 -52.55859,-41.82813 -5.76563,-4.54296 -15.0586,-11.51562 -16.0586,-17.74218 -1.34375,-6.06641 8.19923,-8.98438 13.25391,-9.32032 16.28125,-1.12499 38.51562,3.1836 58.28125,7.11329 9.93359,1.97656 11.67969,1.68359 11.67969,1.68359 C 280.74609,146.0781 294.5625,136.26951 294,120.66014 293.88672,104.82811 275.24609,92.132794 257.72266,91.578114 240,91.500014 198,91.500014 198,91.500014 c 47.39062,9.769526 57.70312,14.695306 60.17578,20.402336 1.46094,3.3711 -2.4375,6.71875 -15.49219,6.06641 -14.21875,-0.71484 -43.35546,-4.15625 -43.35546,-4.15625 -27.73047,-4.26562 -44.65235,-8.30859 -53.07422,2.69531 -5.50391,7.1875 0.78515,15.94532 3.25781,21.10938 11.0039,19.20312 27.63281,32.3789 39.70703,41.66406 4.54687,3.49219 18.41797,11.22656 18.41797,11.22656 -43.1211,-11.78906 -79.88281,-5.16406 -101.66797,6.28905 -25.042969,14.82423 -20.757809,39.83595 18.97656,63.22267 23.47266,13.81251 37.55469,20.44923 75.98047,25.16797 22.46094,3.58203 27.01172,5.04687 26.83984,6.91407 -0.24217,2.6328 -27.78515,3.62891 -35.02734,4.1289 -18.42187,1.27344 -66.0664,-0.73047 -66.30078,-0.73047 z m 0,0"
     id="path50-4" />
  <path
     style="fill:rgb(100.000%,100.000%,100.000%)"
     d="m 126.44141,288 c 0,0 12.875,6.05859 30.01562,8.19531 6.94141,0.86328 33.34766,3.89063 53.59766,3.8086 0,0 24.66015,0.0234 38.27343,-1.90235 14.24219,-2.02344 22.3086,-4.60547 26.80079,-9.76172 0.11718,-1.22656 2.16796,-5.23047 -3.36719,-9.09375 -14.15625,-9.875 -32.45313,-12.57812 -67.9961,-21.01953 -39.30468,-9.88281 -51.65234,-19.34375 -57.52343,-26.1914 -5.5625,-6.86329 1.64843,-21.11719 33.32031,-28.10938 C 195.59766,200.02344 252,198 252,198 c -17.13281,-13.60156 -45.98438,-36.64844 -52.55859,-41.82813 -5.76563,-4.54296 -15.0586,-11.51562 -16.0586,-17.74218 -1.34375,-6.06641 8.19922,-8.98438 13.25391,-9.32032 16.28125,-1.12499 38.51562,3.1836 58.28125,7.11329 9.93359,1.97656 11.67969,1.68359 11.67969,1.68359 C 280.74609,138.57812 294.5625,128.76953 294,113.16016 293.88672,97.328125 275.24609,84.632812 257.72266,84.078125 240,84 198,84 198,84 c 47.39062,9.769531 57.70312,14.695312 60.17578,20.40234 1.46094,3.3711 -2.4375,6.71875 -15.49219,6.06641 -14.21875,-0.71484 -43.35547,-4.15625 -43.35547,-4.15625 -27.73046,-4.26562 -44.65234,-8.308594 -53.07421,2.69531 -5.50391,7.1875 0.78515,15.94532 3.25781,21.10938 11.0039,19.20312 27.63281,32.3789 39.70703,41.66406 4.54687,3.49219 18.41797,11.22656 18.41797,11.22656 -43.1211,-11.78906 -79.88281,-5.16406 -101.66797,6.28906 -25.042969,14.82422 -20.757812,39.83594 18.97656,63.22266 23.47266,13.8125 37.55469,20.44922 75.98047,25.16797 22.46094,3.58203 27.01172,5.04687 26.83984,6.91406 -0.24218,2.63281 -27.78515,3.62891 -35.02734,4.12891 C 174.31641,290.00391 126.67188,288 126.4375,288 Z m 0,0"
     id="path50" />
  <path
     style="fill:#000000;stroke-width:1.33333325;fill-opacity:1;opacity:0.3"
     d="M 32.078125 251.00977 C 32.041687 252.67276 32.015625 254.33803 32.015625 256.00977 C 32.015625 379.7129 132.30143 480 256.00977 480 C 379.7129 480 480 379.7129 480 256.00977 C 480 254.33803 479.97394 252.67276 479.9375 251.00977 C 477.27753 372.40306 378.04123 470 256.00977 470 C 133.97319 470 34.738095 372.40306 32.078125 251.00977 z "
     transform="scale(0.75)"
     id="path44-5" />
  <path
     style="fill:#ffffff;stroke-width:1.33333325;fill-opacity:1;opacity:0.3"
     d="M 256.00977 32.015625 C 132.30145 32.015625 32.015625 132.30144 32.015625 256.00977 C 32.015625 257.68143 32.041687 259.34684 32.078125 261.00977 C 34.738095 139.6115 133.97317 42.015625 256.00977 42.015625 C 378.04123 42.015625 477.27753 139.6115 479.9375 261.00977 C 479.97394 259.34684 480 257.68143 480 256.00977 C 480 132.30144 379.7129 32.015625 256.00977 32.015625 z "
     transform="scale(0.75)"
     id="path44-0" />
</svg>

<svg width="512" height="512" version="1.1" viewBox="0 0 384 384" xmlns="http://www.w3.org/2000/svg" xmlns:xlink="http://www.w3.org/1999/xlink"><defs><clipPath><rect width="384" height="384"/></clipPath><clipPath><rect width="384" height="384"/></clipPath><linearGradient id="a" x1="239.82" x2="-85.818" y1="193.46" y2="595.64" gradientUnits="userSpaceOnUse"><stop stop-color="#8b41aa" offset="0"/><stop stop-color="#be2d5d" offset="1"/></linearGradient></defs><path d="m360 192.01c0-92.781-75.215-168-167.99-168-92.781 0-168 75.215-168 168 0 92.777 75.215 167.99 168 167.99 92.777 0 167.99-75.215 167.99-167.99z" fill="url(#a)"/><path d="m126.44 295.5s12.875 6.0586 30.016 8.1953c6.9414 0.86328 33.348 3.8906 53.598 3.8086 0 0 24.66 0.0234 38.273-1.9024 14.242-2.0234 22.309-4.6055 26.801-9.7617 0.11718-1.2266 2.168-5.2305-3.3672-9.0938-14.156-9.875-32.453-12.578-67.996-21.02-39.305-9.8828-51.652-19.344-57.523-26.191-5.5625-6.8633 1.6484-21.117 33.32-28.109 16.035-3.9023 72.438-5.9258 72.438-5.9258-17.133-13.602-45.984-36.648-52.559-41.828-5.7656-4.543-15.059-11.516-16.059-17.742-1.3438-6.0664 8.1992-8.9844 13.254-9.3203 16.281-1.125 38.516 3.1836 58.281 7.1133 9.9336 1.9766 11.68 1.6836 11.68 1.6836 14.148 0.67187 27.965-9.1367 27.402-24.746-0.11328-15.832-18.754-28.527-36.277-29.082-17.723-0.0781-59.723-0.0781-59.723-0.0781 47.391 9.7695 57.703 14.695 60.176 20.402 1.4609 3.3711-2.4375 6.7188-15.492 6.0664-14.219-0.71484-43.355-4.1562-43.355-4.1562-27.73-4.2656-44.652-8.3086-53.074 2.6953-5.5039 7.1875 0.78515 15.945 3.2578 21.109 11.004 19.203 27.633 32.379 39.707 41.664 4.5469 3.4922 18.418 11.227 18.418 11.227-43.121-11.789-79.883-5.1641-101.67 6.289-25.043 14.824-20.758 39.836 18.977 63.223 23.473 13.813 37.555 20.449 75.98 25.168 22.461 3.582 27.012 5.0469 26.84 6.9141-0.24217 2.6328-27.785 3.6289-35.027 4.1289-18.422 1.2734-66.066-0.73047-66.301-0.73047z" fill="#040404" opacity=".3"/><path d="m126.44 288s12.875 6.0586 30.016 8.1953c6.9414 0.86328 33.348 3.8906 53.598 3.8086 0 0 24.66 0.0234 38.273-1.9024 14.242-2.0234 22.309-4.6055 26.801-9.7617 0.11718-1.2266 2.168-5.2305-3.3672-9.0938-14.156-9.875-32.453-12.578-67.996-21.02-39.305-9.8828-51.652-19.344-57.523-26.191-5.5625-6.8633 1.6484-21.117 33.32-28.109 16.035-3.9023 72.438-5.9258 72.438-5.9258-17.133-13.602-45.984-36.648-52.559-41.828-5.7656-4.543-15.059-11.516-16.059-17.742-1.3438-6.0664 8.1992-8.9844 13.254-9.3203 16.281-1.125 38.516 3.1836 58.281 7.1133 9.9336 1.9766 11.68 1.6836 11.68 1.6836 14.148 0.67187 27.965-9.1367 27.402-24.746-0.11328-15.832-18.754-28.527-36.277-29.082-17.723-0.078125-59.723-0.078125-59.723-0.078125 47.391 9.7695 57.703 14.695 60.176 20.402 1.4609 3.3711-2.4375 6.7188-15.492 6.0664-14.219-0.71484-43.355-4.1562-43.355-4.1562-27.73-4.2656-44.652-8.3086-53.074 2.6953-5.5039 7.1875 0.78515 15.945 3.2578 21.109 11.004 19.203 27.633 32.379 39.707 41.664 4.5469 3.4922 18.418 11.227 18.418 11.227-43.121-11.789-79.883-5.1641-101.67 6.2891-25.043 14.824-20.758 39.836 18.977 63.223 23.473 13.812 37.555 20.449 75.98 25.168 22.461 3.582 27.012 5.0469 26.84 6.9141-0.24218 2.6328-27.785 3.6289-35.027 4.1289-18.422 1.2734-66.066-0.73047-66.301-0.73047z" fill="#fff"/><path transform="scale(.75)" d="m32.078 251.01c-0.036438 1.663-0.0625 3.3283-0.0625 5 0 123.7 100.29 223.99 223.99 223.99 123.7 0 223.99-100.29 223.99-223.99 0-1.6717-0.02606-3.337-0.0625-5-2.66 121.39-101.9 218.99-223.93 218.99-122.04 0-221.27-97.597-223.93-218.99z" opacity=".3" stroke-width="1.3333"/><path transform="scale(.75)" d="m256.01 32.016c-123.71 0-223.99 100.29-223.99 223.99 0 1.6717 0.026062 3.3371 0.0625 5 2.66-121.4 101.9-218.99 223.93-218.99 122.03 0 221.27 97.596 223.93 218.99 0.03644-1.6629 0.0625-3.3283 0.0625-5 0-123.71-100.29-223.99-223.99-223.99z" fill="#fff" opacity=".2" stroke-width="1.3333"/></svg>
